dist/images/icons/star_empty.svg

<svg width="24" height="22" viewBox="0 0 24 22" fill="none" xmlns="http://www.w3.org/2000/svg">
<path fill-rule="evenodd" clip-rule="evenodd" d="M4.29698 21.0467C4.17998 21.6979 4.83698 22.2068 5.41598 21.9164L12.001 18.6079L18.5845 21.9164C19.1635 22.2068 19.8205 21.6979 19.7035 21.0482L18.4585 14.1114L23.743 9.18964C24.2365 8.72915 23.98 7.88734 23.3185 7.79642L15.9715 6.7757L12.6955 0.429911C12.6331 0.301278 12.5346 0.192598 12.4115 0.116497C12.2885 0.0403969 12.1458 0 12.0002 0C11.8546 0 11.712 0.0403969 11.5889 0.116497C11.4658 0.192598 11.3674 0.301278 11.305 0.429911L8.02898 6.77716L0.68198 7.79788C0.0204801 7.88881 -0.23602 8.73061 0.25748 9.19111L5.54198 14.1129L4.29698 21.0497V21.0467ZM11.6545 16.9888L6.12548 19.7664L7.16648 13.9633C7.19087 13.8297 7.18133 13.6923 7.13869 13.5632C7.09606 13.434 7.02164 13.3171 6.92198 13.2227L2.56298 9.16031L8.64098 8.31558C8.76684 8.297 8.88621 8.24886 8.98888 8.1753C9.09155 8.10174 9.17445 8.00495 9.23048 7.89321L12.001 2.52855L14.77 7.89321C14.826 8.00495 14.9089 8.10174 15.0116 8.1753C15.1142 8.24886 15.2336 8.297 15.3595 8.31558L21.4375 9.15885L17.0785 13.2212C16.9785 13.3157 16.9038 13.4329 16.8612 13.5623C16.8186 13.6917 16.8092 13.8295 16.834 13.9633L17.875 19.7664L12.346 16.9888C12.2391 16.9349 12.1205 16.9068 12.0002 16.9068C11.8799 16.9068 11.7614 16.9349 11.6545 16.9888Z" fill="black"/>
</svg>

<svg width="24" height="22" fill="none" xmlns="http://www.w3.org/2000/svg"><path fill-rule="evenodd" clip-rule="evenodd" d="M4.297 21.047c-.117.65.54 1.16 1.119.87l6.585-3.31 6.583 3.31c.58.29 1.236-.22 1.12-.869l-1.245-6.937 5.284-4.921c.494-.46.237-1.303-.424-1.394l-7.347-1.02L12.695.43a.758.758 0 00-.284-.314.782.782 0 00-1.106.314L8.029 6.777.682 7.797c-.662.092-.918.934-.425 1.394l5.285 4.922-1.245 6.937v-.003zm7.358-4.058l-5.53 2.777 1.041-5.803a.81.81 0 00-.244-.74L2.563 9.16l6.078-.844a.797.797 0 00.59-.423L12 2.53l2.769 5.364a.797.797 0 00.59.422l6.077.844-4.359 4.062a.824.824 0 00-.244.742l1.041 5.803-5.529-2.777a.768.768 0 00-.691 0z" fill="#000"/></svg>
